images_sukapura_svg/cmd/32/autoformat.svg

<svg viewBox="0 0 32 32" xmlns="http://www.w3.org/2000/svg" xmlns:xlink="http://www.w3.org/1999/xlink"><filter id="a" color-interpolation-filters="sRGB" height="1.135959" width="1.153052" x="-.076526" y="-.067979"><feGaussianBlur stdDeviation=".44180839"/></filter><radialGradient id="b" cx="55.498295" cy="20.746534" gradientTransform="matrix(1 0 0 .72181261 0 7.10169)" gradientUnits="userSpaceOnUse" r="10.03901"><stop offset="0" stop-color="#ffc765"/><stop offset="1" stop-color="#ffa914"/></radialGradient><radialGradient id="c" cx="55.441967" cy="22.525862" gradientTransform="matrix(1.2258064 0 0 1.0478667 -12.519154 -1.07824)" gradientUnits="userSpaceOnUse" r="2.229184"><stop offset="0" stop-color="#ffe9c3"/><stop offset="1" stop-color="#ffe9c3" stop-opacity="0"/></radialGradient><filter id="d" color-interpolation-filters="sRGB" height="1.116265" width="1.123983" x="-.061992" y="-.058132"><feGaussianBlur stdDeviation=".61991525"/></filter><linearGradient id="e" gradientUnits="userSpaceOnUse" x1="15" x2="15" y1="4" y2="28"><stop offset="0" stop-color="#efefef"/><stop offset=".33333334" stop-color="#fff"/><stop offset=".8888889" stop-color="#fff"/><stop offset="1" stop-color="#f5f5f5"/></linearGradient><path d="m4 4h24v25.59322h-24z" filter="url(#d)" opacity=".15" stroke-width="1.032659"/><path d="m4 3c-.554 0-1 .446-1 1v24c0 .554.446 1 1 1h24c.554 0 1-.446 1-1v-24c0-.554-.446-1-1-1zm0 1h24v9 1 4 1 4 1 4h-6-1-5-1-5-1-5v-4-1-4-1-4-1z" fill="#69696e"/><path d="m4 4h24v24h-24z" fill="url(#e)"/><path d="m3 3h26v6h-26z" fill="#0a84ff"/><path d="m9 9v4h-5v1h5v4h-5v1h5v4h-5v1h5v4h1v-4h5v4h1v-4h5v4h1v-4h6v-1h-6v-4h6v-1h-6v-4h6v-1h-6v-4h-1v4h-5v-4h-1v4h-5v-4zm1 5h5v4h-5zm6 0h5v4h-5zm-6 5h5v4h-5zm6 0h5v4h-5z" fill="#bababa"/><path d="m4 3c-.554 0-1 .446-1 1v5h1 5 1 5 1 5 1 6 1v-5c0-.554-.446-1-1-1zm0 1h5v4h-5zm6 0h5v4h-5zm6 0h5v4h-5zm6 0h6v4h-6z" fill="#0040dd"/><g transform="matrix(.79893533 0 0 .79893533 -27.882846 5.714362)"><path d="m57.661017 18.305085 12.20339-12.0000003 1.118644-1.0169491c.535947-.4093238 1.138074-.6755092 2.338983-.6101695l.813559.6101695c.306849.6596707.152068 1.3286734.101695 2.0338983l-11.694915 16.7796611z" fill="#d6d6d6" stroke="#98989d" stroke-width="1.251666"/><path d="m59.389831 19.322034 12.813559-13.1186442.686441-.5338983.355932.3305085-12.122973 15.267452z" fill="#f9f9f9" filter="url(#a)"/><path d="m54.915254 19.525424c-2.355192 1.12312-2.986044 2.645733-4.067796 4.881356-1.280902 3.099136-3.365034 4.179849-6 5.898305 4.002224 2.208107 12.344829 3.382311 15.355932-1.016949 1.803572-2.317145 5.097789-5.637418 1.932203-8.237289-2.997587-2.267403-4.004437-2.954713-7.220339-1.525423z" fill="url(#b)" stroke="#f58b00" stroke-width="1.251666"/><path d="m49.395592 26.820763c-1.20494 1.428749-2.746668 2.309185-4.547936 3.483925 4.002224 2.208106 12.344366 3.383635 15.355469-1.015626-2.950168-3.198325-8.750083-1.802762-10.807533-2.468299z" fill="#0a84ff" stroke="#0040dd" stroke-width="1.251666"/><ellipse cx="55.441967" cy="22.525862" fill="url(#c)" rx="2.732548" ry="2.335888"/></g></svg>

<?xml version="1.0" encoding="UTF-8" standalone="no"?>
<svg
   xmlns:dc="http://purl.org/dc/elements/1.1/"
   xmlns:cc="http://creativecommons.org/ns#"
   xmlns:rdf="http://www.w3.org/1999/02/22-rdf-syntax-ns#"
   xmlns:svg="http://www.w3.org/2000/svg"
   xmlns="http://www.w3.org/2000/svg"
   xmlns:xlink="http://www.w3.org/1999/xlink"
   xmlns:sodipodi="http://sodipodi.sourceforge.net/DTD/sodipodi-0.dtd"
   xmlns:inkscape="http://www.inkscape.org/namespaces/inkscape"
   viewBox="0 0 32 32"
   version="1.1"
   id="svg10"
   sodipodi:docname="autoformat.svg"
   inkscape:export-filename="/home/rizmut/Dokumen/Rizmut/Github/libreoffice-style-sukapura/images_sukapura/cmd/32/designerdialog.png"
   inkscape:export-xdpi="96"
   inkscape:export-ydpi="96"
   inkscape:version="0.92.3 (unknown)">
  <metadata
     id="metadata16">
    <rdf:RDF>
      <cc:Work
         rdf:about="">
        <dc:format>image/svg+xml</dc:format>
        <dc:type
           rdf:resource="http://purl.org/dc/dcmitype/StillImage" />
        <dc:title></dc:title>
      </cc:Work>
    </rdf:RDF>
  </metadata>
  <defs
     id="defs14">
    <filter
       inkscape:collect="always"
       style="color-interpolation-filters:sRGB"
       id="filter1489"
       x="-0.076526076"
       width="1.1530522"
       y="-0.06797941"
       height="1.1359588">
      <feGaussianBlur
         inkscape:collect="always"
         stdDeviation="0.44180839"
         id="feGaussianBlur1491" />
    </filter>
    <radialGradient
       inkscape:collect="always"
       xlink:href="#linearGradient2152"
       id="radialGradient2154"
       cx="55.498295"
       cy="20.746534"
       fx="55.498295"
       fy="20.746534"
       r="10.03901"
       gradientTransform="matrix(1,0,0,0.72181261,0,7.1016901)"
       gradientUnits="userSpaceOnUse" />
    <linearGradient
       inkscape:collect="always"
       id="linearGradient2152">
      <stop
         style="stop-color:#ffc765;stop-opacity:1"
         offset="0"
         id="stop2148" />
      <stop
         style="stop-color:#ffa914;stop-opacity:1"
         offset="1"
         id="stop2150" />
    </linearGradient>
    <radialGradient
       inkscape:collect="always"
       xlink:href="#linearGradient2226"
       id="radialGradient2228"
       cx="55.441967"
       cy="22.525862"
       fx="55.441967"
       fy="22.525862"
       r="2.2291842"
       gradientTransform="matrix(1.2258064,0,0,1.0478667,-12.519154,-1.0782398)"
       gradientUnits="userSpaceOnUse" />
    <linearGradient
       inkscape:collect="always"
       id="linearGradient2226">
      <stop
         style="stop-color:#ffe9c3;stop-opacity:1;"
         offset="0"
         id="stop2222" />
      <stop
         style="stop-color:#ffe9c3;stop-opacity:0;"
         offset="1"
         id="stop2224" />
    </linearGradient>
    <filter
       inkscape:collect="always"
       style="color-interpolation-filters:sRGB"
       id="filter909"
       x="-0.061991524"
       width="1.1239831"
       y="-0.058132451"
       height="1.1162649">
      <feGaussianBlur
         inkscape:collect="always"
         stdDeviation="0.61991525"
         id="feGaussianBlur911" />
    </filter>
    <linearGradient
       inkscape:collect="always"
       xlink:href="#linearGradient883"
       id="linearGradient873"
       x1="15"
       y1="4"
       x2="15"
       y2="28"
       gradientUnits="userSpaceOnUse" />
    <linearGradient
       id="linearGradient883"
       inkscape:collect="always">
      <stop
         id="stop875"
         offset="0"
         style="stop-color:#efefef;stop-opacity:1;" />
      <stop
         style="stop-color:#ffffff;stop-opacity:1"
         offset="0.33333334"
         id="stop877" />
      <stop
         id="stop879"
         offset="0.8888889"
         style="stop-color:#ffffff;stop-opacity:1" />
      <stop
         id="stop881"
         offset="1"
         style="stop-color:#f5f5f5;stop-opacity:1" />
    </linearGradient>
  </defs>
  <sodipodi:namedview
     pagecolor="#ffffff"
     bordercolor="#666666"
     borderopacity="1"
     objecttolerance="10"
     gridtolerance="10"
     guidetolerance="10"
     inkscape:pageopacity="0"
     inkscape:pageshadow="2"
     inkscape:window-width="1366"
     inkscape:window-height="706"
     id="namedview12"
     showgrid="false"
     inkscape:zoom="7.375"
     inkscape:cx="-1.4237288"
     inkscape:cy="16"
     inkscape:window-x="0"
     inkscape:window-y="0"
     inkscape:window-maximized="1"
     inkscape:current-layer="svg10" />
  <g
     id="g1528">
    <path
       inkscape:connector-curvature="0"
       d="M 4,4 H 28 V 29.59322 H 4 Z"
       id="path885"
       style="opacity:0.15;fill:#000000;fill-opacity:1;stroke-width:1.03265882;filter:url(#filter909)" />
    <path
       inkscape:connector-curvature="0"
       style="fill:#69696e;fill-opacity:1"
       id="path823"
       d="M 4,3 C 3.446,3 3,3.446 3,4 v 24 c 0,0.554 0.446,1 1,1 h 24 c 0.554,0 1,-0.446 1,-1 V 4 C 29,3.446 28.554,3 28,3 Z m 0,1 h 24 v 9 1 4 1 4 1 4 H 22 21 16 15 10 9 4 v -4 -1 -4 -1 -4 -1 z" />
    <path
       inkscape:connector-curvature="0"
       style="fill:url(#linearGradient873);fill-opacity:1"
       id="path2"
       d="M 4,4 H 28 V 28 H 4 Z" />
    <path
       inkscape:connector-curvature="0"
       style="fill:#0a84ff;fill-opacity:1"
       id="path6"
       d="M 3,3 H 29 V 9 H 3 Z" />
    <path
       inkscape:connector-curvature="0"
       id="rect825"
       d="m 9,9 v 4 H 4 v 1 h 5 v 4 H 4 v 1 h 5 v 4 H 4 v 1 h 5 v 4 h 1 v -4 h 5 v 4 h 1 v -4 h 5 v 4 h 1 v -4 h 6 v -1 h -6 v -4 h 6 v -1 h -6 v -4 h 6 V 13 H 22 V 9 h -1 v 4 H 16 V 9 h -1 v 4 H 10 V 9 Z m 1,5 h 5 v 4 h -5 z m 6,0 h 5 v 4 h -5 z m -6,5 h 5 v 4 h -5 z m 6,0 h 5 v 4 h -5 z"
       style="opacity:1;fill:#bababa;fill-opacity:1;stroke:none;stroke-width:1;stroke-linecap:round;stroke-linejoin:round;stroke-miterlimit:4;stroke-dasharray:none;stroke-opacity:1" />
    <path
       inkscape:connector-curvature="0"
       id="path831"
       d="M 4,3 C 3.446,3 3,3.446 3,4 v 5 h 1 5 1 5 1 5 1 6 1 V 4 C 29,3.446 28.554,3 28,3 Z M 4,4 H 9 V 8 H 4 Z m 6,0 h 5 v 4 h -5 z m 6,0 h 5 v 4 h -5 z m 6,0 h 6 v 4 h -6 z"
       style="fill:#0040dd;fill-opacity:1" />
  </g>
  <g
     id="g2235"
     transform="matrix(0.79893533,0,0,0.79893533,-27.882846,5.7143622)">
    <path
       inkscape:connector-curvature="0"
       id="path1455"
       d="M 57.661017,18.305085 69.864407,6.3050847 70.983051,5.2881356 c 0.535947,-0.4093238 1.138074,-0.6755092 2.338983,-0.6101695 l 0.813559,0.6101695 c 0.306849,0.6596707 0.152068,1.3286734 0.101695,2.0338983 L 62.542373,24.101695 Z"
       style="fill:#d6d6d6;fill-opacity:1;stroke:#98989d;stroke-width:1.25166571;stroke-linecap:butt;stroke-linejoin:miter;stroke-miterlimit:4;stroke-dasharray:none;stroke-opacity:1"
       sodipodi:nodetypes="cccccccc" />
    <path
       inkscape:connector-curvature="0"
       id="path1459"
       d="M 59.389831,19.322034 72.20339,6.2033898 72.889831,5.6694915 73.245763,6 61.12279,21.267452 Z"
       style="fill:#f9f9f9;fill-opacity:1;stroke:none;stroke-width:1px;stroke-linecap:butt;stroke-linejoin:miter;stroke-opacity:1;filter:url(#filter1489)" />
    <path
       sodipodi:nodetypes="cccccc"
       inkscape:connector-curvature="0"
       id="path1457"
       d="m 54.915254,19.525424 c -2.355192,1.12312 -2.986044,2.645733 -4.067796,4.881356 -1.280902,3.099136 -3.365034,4.179849 -6,5.898305 4.002224,2.208107 12.344829,3.382311 15.355932,-1.016949 1.803572,-2.317145 5.097789,-5.637418 1.932203,-8.237289 -2.997587,-2.267403 -4.004437,-2.954713 -7.220339,-1.525423 z"
       style="fill:url(#radialGradient2154);fill-opacity:1;stroke:#f58b00;stroke-width:1.25166571;stroke-linecap:butt;stroke-linejoin:miter;stroke-miterlimit:4;stroke-dasharray:none;stroke-opacity:1" />
    <path
       id="path2137"
       d="m 49.395592,26.820763 c -1.20494,1.428749 -2.746668,2.309185 -4.547936,3.483925 4.002224,2.208106 12.344366,3.383635 15.355469,-1.015626 C 57.252957,26.090737 51.453042,27.4863 49.395592,26.820763 Z"
       style="fill:#0a84ff;fill-opacity:1;stroke:#0040dd;stroke-width:1.25166571;stroke-linecap:butt;stroke-linejoin:miter;stroke-miterlimit:4;stroke-dasharray:none;stroke-opacity:1"
       inkscape:connector-curvature="0"
       sodipodi:nodetypes="cccc" />
    <ellipse
       ry="2.3358879"
       rx="2.7325482"
       cy="22.525862"
       cx="55.441967"
       id="path2156"
       style="opacity:1;fill:url(#radialGradient2228);fill-opacity:1;stroke:none;stroke-width:1.22580647;stroke-linecap:round;stroke-linejoin:round;stroke-miterlimit:4;stroke-dasharray:none;stroke-opacity:1" />
  </g>
</svg>
